Numix/16/actions/document-revert-rtl.svg

<?xml version="1.0" encoding="UTF-8" standalone="no"?>
<svg
   xmlns:dc="http://purl.org/dc/elements/1.1/"
   xmlns:cc="http://creativecommons.org/ns#"
   xmlns:rdf="http://www.w3.org/1999/02/22-rdf-syntax-ns#"
   xmlns:svg="http://www.w3.org/2000/svg"
   xmlns="http://www.w3.org/2000/svg"
   xmlns:sodipodi="http://sodipodi.sourceforge.net/DTD/sodipodi-0.dtd"
   xmlns:inkscape="http://www.inkscape.org/namespaces/inkscape"
   width="16"
   height="16"
   viewBox="0 0 16 16"
   id="svg2"
   version="1.1"
   inkscape:version="0.91 r13725"
   sodipodi:docname="document-revert-rtl.svg">
  <metadata
     id="metadata12">
    <rdf:RDF>
      <cc:Work
         rdf:about="">
        <dc:format>image/svg+xml</dc:format>
        <dc:type
           rdf:resource="http://purl.org/dc/dcmitype/StillImage" />
        <dc:title></dc:title>
      </cc:Work>
    </rdf:RDF>
  </metadata>
  <defs
     id="defs10" />
  <sodipodi:namedview
     pagecolor="#ffffff"
     bordercolor="#666666"
     borderopacity="1"
     objecttolerance="10"
     gridtolerance="10"
     guidetolerance="10"
     inkscape:pageopacity="0"
     inkscape:pageshadow="2"
     inkscape:window-width="1366"
     inkscape:window-height="704"
     id="namedview8"
     showgrid="true"
     inkscape:zoom="21.959671"
     inkscape:cx="4.8852099"
     inkscape:cy="8"
     inkscape:window-x="0"
     inkscape:window-y="27"
     inkscape:window-maximized="1"
     inkscape:current-layer="svg2">
    <inkscape:grid
       type="xygrid"
       id="grid4140" />
  </sodipodi:namedview>
  <path
     style="fill:#ffffff;fill-rule:evenodd"
     d="M 12.285714,0 3.714285,0 C 2,0 2,0 2,1.7777778 L 2,14.222222 C 2,16 2,16 3.714285,16 l 8.571429,0 C 14,16 14,16 14,14.222222 L 14,1.7777778 C 14,0 14,0 12.285714,0 Z"
     id="path4"
     inkscape:connector-curvature="0" />
  <path
     style="fill:#859900"
     d="M 5,14 C 3.669698,14 2.665151,14 2,14 2,14 0,14.06235 0,11 0,7.9376479 2,7.7906908 2,7.7906908 2,10.139844 2.339396,10 5,10 5,9.2169489 4.868885,8.3703517 5.534036,8.3703517 L 9,11.663572 c 0.216217,0.205441 0.22082,0.599514 0,0.8 L 5.55946,15.5873 C 4.894309,15.5873 5,14.762062 5,14 Z"
     id="path6"
     inkscape:connector-curvature="0" />
</svg>

<svg xmlns="http://www.w3.org/2000/svg" viewBox="0 0 16 16">
 <path d="M 12.285714,0 3.714285,0 C 2,0 2,0 2,1.7777778 L 2,14.222222 C 2,16 2,16 3.714285,16 l 8.571429,0 C 14,16 14,16 14,14.222222 L 14,1.7777778 C 14,0 14,0 12.285714,0 Z" style="fill:#fff;fill-rule:evenodd"/>
 <path d="m 5 14 c -1.33 0 -2.335 0 -3 0 0 0 -2 0.062 -2 -3 0 -3.062 2 -3.209 2 -3.209 0 2.349 0.339 2.209 3 2.209 0 -0.783 -0.131 -1.63 0.534 -1.63 l 3.466 3.293 c 0.216 0.205 0.221 0.6 0 0.8 l -3.441 3.124 c -0.665 0 -0.559 -0.825 -0.559 -1.587" style="fill:#859900"/>
</svg>
